dist/assets/images/main/advantages1.svg

<svg width="60" height="60" viewBox="0 0 60 60" fill="none" xmlns="http://www.w3.org/2000/svg">
<path fill-rule="evenodd" clip-rule="evenodd" d="M19.5738 1.0378C15.7757 1.50358 13.3368 2.35393 11.8471 3.73197C10.9607 4.55189 10.5962 5.15986 10.3137 6.28933C9.57504 9.2426 7.61415 12.0804 4.94661 14.0566C4.43193 14.4378 3.37213 15.0752 2.59157 15.4729C1.63004 15.9626 1.13142 16.2855 1.04544 16.4739C0.946467 16.691 1.0007 17.2101 1.29224 18.8363C2.05324 23.0814 2.60574 25.0838 3.7213 27.6393C5.27001 31.1872 7.25983 34.0856 10.0795 36.9006C12.1509 38.9686 14.4277 40.6856 16.8417 42.0005L17.8168 42.5316V45.2035V47.8754L17.3776 47.9394C17.1361 47.9746 16.5958 48.0351 16.177 48.0739C14.0156 48.2742 11.323 48.9091 10.1792 49.4881C9.49785 49.8331 8.84133 50.3982 8.61609 50.8334C8.40818 51.235 8.37129 55.2888 8.57064 55.8173C8.85152 56.5616 9.80181 57.2447 11.2549 57.7471C14.1223 58.7385 19.9664 59.2318 24.8447 58.8941C30.6213 58.4944 33.9466 57.4411 34.5594 55.8173C34.7588 55.2888 34.7219 51.235 34.514 50.8334C34.2887 50.3982 33.6322 49.8331 32.9509 49.4881C31.8071 48.9091 29.1145 48.2742 26.9531 48.0739C26.5343 48.0351 25.9941 47.9746 25.7525 47.9394L25.3132 47.8754V45.2022V42.529L26.221 42.034C27.484 41.3451 29.518 39.9895 30.7013 39.0481C32.1318 37.9099 34.4709 35.5173 35.5772 34.0608L36.5292 32.8072L36.6051 33.282C36.758 34.237 37.1277 34.6893 40.6112 38.185L44.0542 41.64V44.8145V47.9891L43.2636 48.1223C40.2032 48.6381 38.1438 49.6167 37.6526 50.7888C37.4055 51.3788 37.4311 55.5091 37.6853 56.0443C38.2746 57.2851 40.3696 58.2185 43.7471 58.7454C45.5706 59.0298 50.0342 59.0298 51.8577 58.7454C55.2352 58.2185 57.3302 57.2851 57.9195 56.0443C58.1736 55.5091 58.1993 51.3788 57.9521 50.7888C57.461 49.6167 55.4016 48.6381 52.3412 48.1223L51.5506 47.9891V44.8145V41.64L54.9935 38.185C57.2047 35.9663 58.5344 34.5416 58.7098 34.2034C59.0966 33.4577 59.0967 32.1409 58.7101 31.3947C58.5307 31.0483 56.9685 29.3949 54.1447 26.5628C49.3308 21.7347 49.1973 21.6309 47.8105 21.6355C46.4274 21.6402 46.29 21.7424 42.1985 25.8121L38.5271 29.4637L38.9604 28.5937C40.1943 26.1158 40.9669 23.5605 41.7149 19.4835C42.1169 17.2922 42.1891 16.7032 42.0841 16.4728C41.9946 16.2766 41.5559 15.9866 40.6905 15.5515C37.9664 14.1819 36.1323 12.5928 34.5979 10.2731C33.8585 9.15506 33.2311 7.77878 32.8598 6.46054C32.465 5.05933 32.1749 4.55715 31.2841 3.73314C30.0643 2.60473 27.944 1.72828 25.3132 1.26519C24.2408 1.0763 20.4758 0.927206 19.5738 1.0378ZM23.7658 2.96167C26.8238 3.29135 29.6139 4.38477 30.5604 5.62459C31.0005 6.20109 31.0005 6.96717 30.5604 7.54366C30.1547 8.0751 29.1145 8.76406 28.0872 9.18174C23.261 11.1441 15.4624 10.4404 12.8243 7.80464C11.9777 6.95874 12.002 6.16808 12.9014 5.29281C14.7308 3.51242 19.4603 2.49764 23.7658 2.96167ZM11.9404 9.5195C13.142 10.5763 15.1409 11.3976 17.6669 11.8728C19.5185 12.2209 23.454 12.2453 25.2547 11.9197C27.8399 11.452 29.9523 10.6025 31.1609 9.54431C31.5547 9.19942 31.8146 9.04353 31.8448 9.134C32.1386 10.0147 33.5718 12.2004 34.5669 13.2856L35.2464 14.0265L34.9229 14.7817C34.4106 15.9776 33.4559 17.5032 32.5077 18.6417C31.6382 19.6854 31.6299 19.6916 31.0929 19.6916C29.6609 19.6916 28.4863 20.6213 28.1911 21.9881C28.1209 22.314 27.9889 22.4115 26.9763 22.8865C25.2666 23.6884 25.2936 23.6873 24.6594 22.9825C22.9892 21.1265 20.073 21.1586 18.4056 23.0513C17.8515 23.6802 17.8451 23.6798 16.1538 22.8865C15.1412 22.4115 15.0092 22.314 14.9389 21.9881C14.811 21.3959 14.4637 20.8075 14.004 20.4041C13.4511 19.9191 13.1269 19.7935 12.1991 19.7052L11.4425 19.6331L10.7001 18.7553C9.79138 17.6809 8.76848 16.0646 8.26036 14.9005L7.88039 14.03L8.58622 13.262C9.39033 12.3872 10.4761 10.7926 10.9764 9.75157C11.1632 9.36291 11.3343 9.04412 11.3567 9.0433C11.379 9.04248 11.6417 9.25676 11.9404 9.5195ZM6.90539 16.3864C7.52478 17.6318 8.45574 19.0329 9.31571 20.0142L9.95747 20.7465L9.67156 21.3601C9.17867 22.4181 9.37018 23.5949 10.1691 24.4168C10.714 24.9774 11.1259 25.1875 11.8467 25.2728C12.637 25.3663 13.3902 25.1306 13.9839 24.6041L14.4786 24.1652L15.1228 24.4835C15.4772 24.6586 16.0743 24.9238 16.4497 25.0728C17.0365 25.3057 17.1227 25.3782 17.0642 25.5897C16.8948 26.2015 16.8604 27.543 16.9939 28.334C17.2889 30.0817 18.4847 31.7672 19.8938 32.4216C20.4597 32.6845 20.7312 32.7355 21.565 32.7355C22.3989 32.7355 22.6704 32.6845 23.2363 32.4216C24.6454 31.7672 25.8411 30.0817 26.1362 28.334C26.2697 27.5428 26.2353 26.2015 26.0658 25.5892C26.0059 25.3731 26.11 25.297 26.9145 24.9689C27.4189 24.7631 28.0157 24.4973 28.2408 24.3782L28.6502 24.1617L29.138 24.611C30.3807 25.7555 32.4214 25.4434 33.3337 23.9693C33.6408 23.473 33.6881 23.286 33.6881 22.5681C33.6881 21.9388 33.6256 21.6208 33.4282 21.2455L33.1683 20.7515L33.8121 20.0167C34.6635 19.0453 35.5975 17.6407 36.2074 16.4147C36.4795 15.8676 36.7139 15.4065 36.7282 15.3901C36.7425 15.3736 37.1936 15.6539 37.7305 16.013C38.2673 16.372 39.0269 16.8262 39.4185 17.0222C39.81 17.2183 40.143 17.3896 40.1585 17.4028C40.216 17.4519 39.46 21.4269 39.189 22.5003C37.9566 27.3819 35.595 31.5978 32.0526 35.2401C30.434 36.9043 29.3759 37.7901 27.4861 39.063C26.1377 39.9713 23.1122 41.5593 22.0043 41.9404C21.443 42.1334 21.2503 42.0689 18.8125 40.8718C15.7495 39.3679 13.5325 37.7543 11.0742 35.2395C7.57573 31.6608 5.16295 27.3538 3.93905 22.5028C3.64716 21.3458 2.90361 17.461 2.96487 17.4126C2.98408 17.3975 3.3808 17.1871 3.84663 16.9452C4.31234 16.7032 5.05027 16.253 5.48647 15.9445C5.92254 15.6361 6.3058 15.3792 6.33801 15.3736C6.37022 15.3679 6.62557 15.8237 6.90539 16.3864ZM12.8441 21.8514C13.0254 22.0324 13.1316 22.2724 13.1316 22.5003C13.1316 22.7283 13.0254 22.9682 12.8441 23.1493C12.6628 23.3304 12.4227 23.4366 12.1946 23.4366C11.9664 23.4366 11.7263 23.3304 11.5451 23.1493C11.3637 22.9682 11.2575 22.7283 11.2575 22.5003C11.2575 22.2724 11.3637 22.0324 11.5451 21.8514C11.7263 21.6702 11.9664 21.5641 12.1946 21.5641C12.4227 21.5641 12.6628 21.6702 12.8441 21.8514ZM31.585 21.8514C32.1661 22.4319 31.7544 23.4366 30.9355 23.4366C30.454 23.4366 29.9985 22.9814 29.9985 22.5003C29.9985 22.0192 30.454 21.5641 30.9355 21.5641C31.1637 21.5641 31.4038 21.6702 31.585 21.8514ZM22.4481 23.6564C23.0777 23.9422 23.8456 24.8344 24.1051 25.5816C24.3881 26.3963 24.3881 27.9668 24.1051 28.7815C23.7024 29.9412 22.5389 30.9214 21.565 30.9214C20.5912 30.9214 19.4276 29.9412 19.0249 28.7815C18.7419 27.9668 18.7419 26.3963 19.0249 25.5816C19.4276 24.422 20.5912 23.4417 21.565 23.4417C21.7905 23.4417 22.1878 23.5383 22.4481 23.6564ZM52.7719 27.8756L57.1143 32.2142V32.8006V33.3869L52.7805 37.7083C49.9156 40.565 48.3374 42.0563 48.1245 42.1083C47.9474 42.1516 47.6574 42.1516 47.4803 42.1083C47.2673 42.0563 45.6892 40.565 42.8243 37.7083L38.4905 33.3869V32.8009V32.2151L42.7658 27.9334C45.1172 25.5784 47.1465 23.6038 47.2753 23.5455C47.4041 23.4871 47.7165 23.4614 47.9695 23.4882C48.3979 23.5336 48.728 23.8351 52.7719 27.8756ZM44.0542 29.61L44.0541 31.1021L43.4779 31.5978C43.1303 31.897 42.7738 32.3548 42.5793 32.752C41.93 34.0778 42.1184 36.1313 42.9987 37.3255C43.4199 37.8969 44.3689 38.4165 44.9912 38.4165C45.6129 38.4165 46.5623 37.8969 46.9847 37.3255C47.1835 37.0566 47.4355 36.5339 47.5449 36.1638C47.6543 35.7939 47.7702 35.4911 47.8024 35.4911C47.8346 35.4911 47.9504 35.7939 48.0598 36.1638C48.3324 37.0858 48.8517 37.7497 49.5862 38.1154C50.3502 38.4959 50.8768 38.4959 51.6409 38.1154C52.8093 37.5336 53.5005 36.0445 53.4007 34.3234C53.3326 33.1492 52.931 32.2898 52.1269 31.5978L51.5507 31.1021L51.5506 29.61V28.1178H50.6135H49.6765V29.61L49.6764 31.1021L49.1035 31.595C48.5449 32.0757 47.9195 33.0947 47.9195 33.5242C47.9195 33.6403 47.8668 33.7353 47.8024 33.7353C47.738 33.7353 47.6853 33.6403 47.6853 33.5242C47.6853 33.0947 47.0599 32.0757 46.5013 31.595L45.9284 31.1021L45.9283 29.61V28.1178H44.9912H44.0542V29.61ZM45.5377 33.2465C45.8499 33.7106 45.9839 34.4777 45.8771 35.1896C45.784 35.8103 45.367 36.4723 45.0393 36.5199C44.5625 36.5892 44.0645 35.6449 44.0645 34.6715C44.0645 33.6982 44.5625 32.7539 45.0393 32.8232C45.1695 32.8421 45.3938 33.0325 45.5377 33.2465ZM51.16 33.2465C51.4722 33.7106 51.6062 34.4777 51.4994 35.1896C51.4063 35.8103 50.9893 36.4723 50.6616 36.5199C50.1848 36.5892 49.6868 35.6449 49.6868 34.6715C49.6868 33.6982 50.1848 32.7539 50.6616 32.8232C50.7918 32.8421 51.0161 33.0325 51.16 33.2465ZM20.833 43.811L21.565 44.0807L22.2971 43.811C22.6998 43.6626 23.1214 43.5143 23.2342 43.4814C23.4256 43.4256 23.4391 43.6162 23.4391 46.3483V49.275L22.9683 49.4632C22.3404 49.7142 20.7896 49.7142 20.1618 49.4632L19.6909 49.275V46.3483C19.6909 43.6162 19.7045 43.4256 19.8959 43.4814C20.0087 43.5143 20.4304 43.6626 20.833 43.811ZM47.8024 43.9701C48.4873 43.9701 48.7905 43.9122 49.1787 43.707L49.6765 43.4441V46.3595V49.275L49.2056 49.4632C48.5778 49.7142 47.027 49.7142 46.3992 49.4632L45.9283 49.275V46.3595V43.4441L46.4261 43.707C46.8143 43.9122 47.1175 43.9701 47.8024 43.9701ZM17.9253 50.0384C18.0518 50.3708 18.6922 50.8693 19.4294 51.2096C19.9129 51.4327 20.1859 51.4655 21.565 51.4655C22.9441 51.4655 23.2172 51.4327 23.7007 51.2096C24.4342 50.8711 25.0782 50.3711 25.2029 50.0434C25.3169 49.7438 25.4001 49.7449 27.7977 50.076C30.1054 50.3946 32.6925 51.16 32.6925 51.524C32.6925 51.8841 30.1517 52.6399 27.7977 52.98C23.0129 53.6713 16.9002 53.4816 12.9183 52.5183C11.6429 52.2097 10.4376 51.7266 10.4376 51.524C10.4376 51.0162 14.6179 50.0026 17.6148 49.7837C17.7329 49.7751 17.867 49.8851 17.9253 50.0384ZM44.2266 50.1092C44.317 50.3939 44.954 50.8807 45.6667 51.2096C46.1503 51.4327 46.4233 51.4655 47.8024 51.4655C49.2607 51.4655 49.4338 51.4418 50.0279 51.1619C50.6783 50.8554 51.3496 50.3141 51.4486 50.0164C51.4938 49.8804 51.6603 49.8859 52.4928 50.051C54.4191 50.433 56.1773 51.1362 56.1773 51.5245C56.1773 51.9746 53.6524 52.8604 51.492 53.1682C49.0038 53.5226 45.201 53.4147 42.7381 52.9197C40.7752 52.5252 39.184 51.8008 39.4249 51.4112C39.5892 51.1456 41.1483 50.5038 42.2387 50.2529C44.1273 49.8184 44.1341 49.8179 44.2266 50.1092ZM14.0687 54.6731C16.639 55.0946 18.1475 55.2009 21.565 55.2009C26.0707 55.2009 29.2614 54.8382 31.6679 54.0527L32.819 53.677L32.785 54.5004L32.7511 55.3239L32.2557 55.5964C30.7119 56.4458 25.9011 57.1409 21.565 57.1409C17.229 57.1409 12.4182 56.4458 10.8744 55.5964L10.379 55.3239L10.3451 54.4989L10.3111 53.674L11.4578 54.0535C12.0884 54.2622 13.2634 54.5409 14.0687 54.6731ZM40.5988 54.2757C44.4252 55.5632 50.977 55.5872 54.8303 54.3277C55.3778 54.1488 55.9206 53.9647 56.0366 53.9188C56.2289 53.8425 56.2441 53.9052 56.2123 54.6398L56.1773 55.4445L55.3288 55.8648C53.5811 56.7303 51.3334 57.0861 47.6853 57.0748C44.0871 57.0635 41.7404 56.6717 40.1192 55.8114L39.4275 55.4445L39.3925 54.6398C39.3606 53.9056 39.376 53.8424 39.5682 53.9175C39.6842 53.9628 40.1479 54.1241 40.5988 54.2757Z" fill="#AEA896"/>
</svg>

<svg width="60" height="60" fill="none" xmlns="http://www.w3.org/2000/svg"><path fill-rule="evenodd" clip-rule="evenodd" d="M19.574 1.038c-3.798.466-6.237 1.316-7.727 2.694-.886.82-1.25 1.428-1.533 2.557-.739 2.954-2.7 5.791-5.367 7.768-.515.38-1.575 1.018-2.355 1.416-.962.49-1.46.812-1.547 1-.099.218-.044.737.247 2.363.761 4.245 1.314 6.248 2.43 8.803 1.548 3.548 3.538 6.447 6.357 9.262 2.072 2.068 4.349 3.785 6.763 5.1l.975.53v5.344l-.44.064c-.24.036-.781.096-1.2.135-2.161.2-4.854.835-5.998 1.414-.681.345-1.338.91-1.563 1.345-.208.402-.245 4.456-.045 4.984.28.745 1.23 1.428 2.684 1.93 2.867.992 8.711 1.485 13.59 1.147 5.776-.4 9.102-1.453 9.714-3.077.2-.528.163-4.582-.045-4.984-.225-.435-.882-1-1.563-1.345-1.144-.579-3.837-1.214-5.998-1.414-.419-.039-.959-.1-1.2-.135l-.44-.064V42.53l.908-.495c1.263-.689 3.297-2.044 4.48-2.986 1.43-1.138 3.77-3.53 4.876-4.987l.952-1.254.076.475c.153.955.523 1.407 4.006 4.903l3.443 3.455v6.349l-.79.133c-3.06.516-5.12 1.495-5.611 2.667-.247.59-.222 4.72.032 5.255.59 1.241 2.685 2.175 6.062 2.701 1.824.285 6.287.285 8.11 0 3.378-.526 5.473-1.46 6.063-2.7.254-.536.28-4.666.032-5.256-.491-1.172-2.55-2.15-5.61-2.667l-.791-.133v-6.35l3.442-3.455c2.212-2.219 3.541-3.643 3.717-3.982.387-.745.387-2.062 0-2.808-.18-.347-1.742-2-4.565-4.832-4.814-4.828-4.948-4.932-6.335-4.927-1.383.004-1.52.106-5.611 4.176l-3.672 3.652.433-.87c1.234-2.478 2.007-5.034 2.755-9.11.402-2.192.474-2.78.37-3.011-.09-.196-.53-.486-1.395-.921-2.724-1.37-4.558-2.96-6.092-5.279a14.08 14.08 0 01-1.738-3.812c-.395-1.402-.685-1.904-1.576-2.728-1.22-1.128-3.34-2.005-5.97-2.468-1.073-.189-4.838-.338-5.74-.227zm4.192 1.924c3.058.33 5.848 1.423 6.794 2.663a1.56 1.56 0 010 1.919c-.405.531-1.445 1.22-2.473 1.638-4.826 1.962-12.625 1.258-15.263-1.377-.846-.846-.822-1.637.077-2.512 1.83-1.78 6.56-2.795 10.865-2.331zM11.94 9.52c1.202 1.056 3.2 1.878 5.727 2.353 1.851.348 5.787.372 7.588.047 2.585-.468 4.697-1.318 5.906-2.376.394-.345.654-.5.684-.41.294.88 1.727 3.066 2.722 4.152l.68.74-.324.756c-.512 1.196-1.467 2.721-2.415 3.86-.87 1.043-.878 1.05-1.415 1.05-1.432 0-2.607.93-2.902 2.296-.07.326-.202.424-1.215.899-1.71.801-1.682.8-2.317.096-1.67-1.857-4.586-1.824-6.253.068-.554.63-.56.629-2.252-.164-1.013-.476-1.145-.573-1.215-.899a3.026 3.026 0 00-.935-1.584c-.553-.485-.877-.61-1.805-.699l-.756-.072-.743-.878c-.909-1.074-1.932-2.69-2.44-3.854l-.38-.871.706-.768c.804-.875 1.89-2.47 2.39-3.51.187-.39.358-.708.38-.709.023 0 .286.214.584.477zm-5.035 6.866c.62 1.246 1.55 2.647 2.41 3.628l.642.733-.285.613c-.493 1.058-.302 2.235.497 3.057.545.56.957.77 1.678.856a2.692 2.692 0 002.137-.669l.495-.439.644.319c.354.175.951.44 1.327.589.587.233.673.305.614.517-.17.611-.204 1.953-.07 2.744.295 1.748 1.49 3.433 2.9 4.088.566.263.837.314 1.671.314.834 0 1.105-.051 1.671-.314 1.41-.655 2.605-2.34 2.9-4.088.134-.791.1-2.133-.07-2.745-.06-.216.044-.292.849-.62a19.955 19.955 0 001.326-.59l.41-.217.487.449c1.243 1.145 3.283.832 4.196-.642.307-.496.354-.683.354-1.4 0-.63-.062-.948-.26-1.323l-.26-.494.644-.735c.852-.972 1.785-2.376 2.395-3.602a40.52 40.52 0 01.521-1.025c.014-.016.466.264 1.002.623.537.359 1.297.813 1.689 1.01.391.195.724.367.74.38.057.049-.699 4.024-.97 5.097-1.232 4.882-3.594 9.098-7.136 12.74-1.619 1.664-2.677 2.55-4.567 3.823-1.348.908-4.374 2.496-5.482 2.877-.561.193-.754.129-3.192-1.068-3.063-1.504-5.28-3.118-7.738-5.633A27.748 27.748 0 013.94 22.503c-.292-1.157-1.035-5.042-.974-5.09.02-.015.416-.226.882-.468a17.066 17.066 0 001.64-1c.436-.309.819-.566.851-.571.032-.006.288.45.567 1.012zm5.94 5.465a.943.943 0 01.287.65.943.943 0 01-.288.648.945.945 0 01-.65.288.944.944 0 01-.649-.288.942.942 0 01-.287-.649c0-.228.106-.468.287-.649a.944.944 0 01.65-.287c.228 0 .468.106.65.287zm18.74 0c.581.58.17 1.586-.65 1.586-.481 0-.936-.456-.936-.937 0-.48.455-.936.937-.936.228 0 .468.106.649.287zm-9.137 1.805c.63.286 1.398 1.178 1.657 1.926.283.814.283 2.385 0 3.2-.403 1.16-1.566 2.14-2.54 2.14s-2.137-.98-2.54-2.14c-.283-.815-.283-2.386 0-3.2.403-1.16 1.566-2.14 2.54-2.14.226 0 .623.096.883.214zm30.324 4.22l4.342 4.338v1.173l-4.333 4.321c-2.865 2.857-4.444 4.348-4.657 4.4a1.614 1.614 0 01-.644 0c-.213-.052-1.79-1.543-4.656-4.4l-4.334-4.321v-1.172l4.276-4.282c2.351-2.355 4.38-4.33 4.51-4.387.128-.059.44-.085.693-.058.429.046.759.347 4.803 4.388zm-8.718 1.734v1.492l-.576.496a3.976 3.976 0 00-.899 1.154c-.649 1.326-.46 3.38.42 4.573.42.572 1.37 1.091 1.992 1.091.622 0 1.571-.52 1.994-1.09.199-.27.45-.792.56-1.162.11-.37.225-.673.257-.673.033 0 .148.303.258.673.272.922.792 1.586 1.526 1.951.764.38 1.29.38 2.055 0 1.168-.581 1.86-2.07 1.76-3.792-.068-1.174-.47-2.033-1.274-2.725l-.576-.496v-2.984h-1.875v2.984l-.573.493c-.558.48-1.184 1.5-1.184 1.93 0 .115-.052.21-.117.21-.064 0-.117-.095-.117-.21 0-.43-.625-1.45-1.184-1.93l-.573-.493v-2.984h-1.874v1.492zm1.484 3.636c.312.465.446 1.232.34 1.944-.094.62-.511 1.282-.839 1.33-.477.07-.974-.875-.974-1.849 0-.973.498-1.917.974-1.848.13.02.355.21.499.423zm5.622 0c.312.465.446 1.232.34 1.944-.094.62-.51 1.282-.838 1.33-.477.07-.975-.875-.975-1.849 0-.973.498-1.917.975-1.848.13.02.354.21.498.423zM20.833 43.811l.732.27.732-.27c.403-.148.824-.297.937-.33.192-.055.205.135.205 2.867v2.927l-.47.188c-.629.251-2.18.251-2.807 0l-.471-.188v-2.927c0-2.732.014-2.922.205-2.867.113.033.534.182.937.33zm26.97.16c.684 0 .988-.059 1.376-.264l.497-.263v5.831l-.47.188c-.628.251-2.179.251-2.807 0l-.47-.188v-5.831l.497.263c.388.205.691.263 1.376.263zm-29.878 6.067c.127.333.767.831 1.504 1.172.484.223.757.255 2.136.255 1.38 0 1.652-.032 2.136-.255.733-.339 1.377-.839 1.502-1.167.114-.3.197-.298 2.595.033 2.307.319 4.895 1.084 4.895 1.448 0 .36-2.541 1.116-4.895 1.456-4.785.691-10.898.502-14.88-.462-1.275-.308-2.48-.791-2.48-.994 0-.508 4.18-1.521 7.177-1.74.118-.009.252.101.31.254zm26.302.071c.09.285.727.772 1.44 1.1.483.224.756.256 2.135.256 1.459 0 1.632-.023 2.226-.303.65-.307 1.322-.848 1.42-1.146.046-.136.212-.13 1.045.035 1.926.382 3.684 1.085 3.684 1.474 0 .45-2.525 1.335-4.685 1.643-2.488.355-6.291.247-8.754-.248-1.963-.395-3.554-1.12-3.313-1.509.164-.265 1.723-.907 2.814-1.158 1.888-.435 1.895-.435 1.988-.144zm-30.158 4.564c2.57.422 4.079.528 7.496.528 4.506 0 7.696-.363 10.103-1.148l1.151-.376-.034.823-.034.824-.495.272c-1.544.85-6.355 1.545-10.691 1.545s-9.147-.695-10.69-1.545l-.496-.272-.034-.825-.034-.825 1.147.38c.63.208 1.805.487 2.61.62zm26.53-.397c3.826 1.287 10.378 1.311 14.231.052.548-.18 1.09-.363 1.207-.41.192-.075.207-.013.175.722l-.035.804-.848.42c-1.748.866-3.996 1.222-7.644 1.21-3.598-.01-5.945-.402-7.566-1.263l-.691-.367-.035-.804c-.032-.734-.017-.798.175-.723.116.046.58.207 1.03.359z" fill="#AEA896"/></svg>
